Newaita-dark/actions/32/format-connect-node.svg

<svg height="32" viewBox="0 0 32 32" width="32" xmlns="http://www.w3.org/2000/svg"><g fill="#e0e0e0"><path d="m19.84375 2.894531v9.261719h9.261719v-7.9375c0-.734375-.589844-1.324219-1.320313-1.324219zm2.648438 2.648438h3.308593c.363281 0 .660157.292969.660157.660156v3.308594h-3.96875zm0 0"/><path d="m11.90625 2.894531v9.261719h-9.261719v-7.9375c0-.734375.589844-1.324219 1.324219-1.324219zm-2.644531 2.648438h-3.308594c-.367187 0-.660156.292969-.660156.660156v3.308594h3.96875zm0 0"/><path d="m19.84375 29.355469v-9.261719h9.261719v7.941406c0 .730469-.589844 1.320313-1.320313 1.320313zm2.648438-2.644531h3.308593c.363281 0 .660157-.296876.660157-.660157v-3.308593h-3.96875zm0 0"/><path d="m11.90625 29.355469v-9.261719h-9.261719v7.941406c0 .730469.589844 1.320313 1.324219 1.320313zm-2.644531-2.644531h-3.308594c-.367187 0-.660156-.296876-.660156-.660157v-3.308593h3.96875zm0 0"/><path d="m10.585938 23.402344h10.582031v2.648437h-10.582031zm0 0"/><path d="m10.585938 6.203125h2.644531v2.648437h-2.644531zm0 0"/><path d="m18.523438 6.203125h2.644531v2.648437h-2.644531zm0 0"/><path d="m19.183594 14.804688h-6.613282l3.304688 3.96875zm0 0"/></g></svg>

<svg xmlns="http://www.w3.org/2000/svg" xmlns:xlink="http://www.w3.org/1999/xlink" width="32px" height="32px" viewBox="0 0 32 32" version="1.1">
<g id="surface1">
     <defs>
  <style id="current-color-scheme" type="text/css">
   .ColorScheme-Text { color:#eeeeee; } .ColorScheme-Highlight { color:#424242; }
  </style>
 </defs>
<path style="fill:currentColor" class="ColorScheme-Text" d="M 19.84375 2.894531 L 19.84375 12.15625 L 29.105469 12.15625 L 29.105469 4.21875 C 29.105469 3.484375 28.515625 2.894531 27.785156 2.894531 Z M 22.492188 5.542969 L 25.800781 5.542969 C 26.164062 5.542969 26.460938 5.835938 26.460938 6.203125 L 26.460938 9.511719 L 22.492188 9.511719 Z M 22.492188 5.542969 "/>
     <defs>
  <style id="current-color-scheme" type="text/css">
   .ColorScheme-Text { color:#eeeeee; } .ColorScheme-Highlight { color:#424242; }
  </style>
 </defs>
<path style="fill:currentColor" class="ColorScheme-Text" d="M 11.90625 2.894531 L 11.90625 12.15625 L 2.644531 12.15625 L 2.644531 4.21875 C 2.644531 3.484375 3.234375 2.894531 3.96875 2.894531 Z M 9.261719 5.542969 L 5.953125 5.542969 C 5.585938 5.542969 5.292969 5.835938 5.292969 6.203125 L 5.292969 9.511719 L 9.261719 9.511719 Z M 9.261719 5.542969 "/>
     <defs>
  <style id="current-color-scheme" type="text/css">
   .ColorScheme-Text { color:#eeeeee; } .ColorScheme-Highlight { color:#424242; }
  </style>
 </defs>
<path style="fill:currentColor" class="ColorScheme-Text" d="M 19.84375 29.355469 L 19.84375 20.09375 L 29.105469 20.09375 L 29.105469 28.035156 C 29.105469 28.765625 28.515625 29.355469 27.785156 29.355469 Z M 22.492188 26.710938 L 25.800781 26.710938 C 26.164062 26.710938 26.460938 26.414062 26.460938 26.050781 L 26.460938 22.742188 L 22.492188 22.742188 Z M 22.492188 26.710938 "/>
     <defs>
  <style id="current-color-scheme" type="text/css">
   .ColorScheme-Text { color:#eeeeee; } .ColorScheme-Highlight { color:#424242; }
  </style>
 </defs>
<path style="fill:currentColor" class="ColorScheme-Text" d="M 11.90625 29.355469 L 11.90625 20.09375 L 2.644531 20.09375 L 2.644531 28.035156 C 2.644531 28.765625 3.234375 29.355469 3.96875 29.355469 Z M 9.261719 26.710938 L 5.953125 26.710938 C 5.585938 26.710938 5.292969 26.414062 5.292969 26.050781 L 5.292969 22.742188 L 9.261719 22.742188 Z M 9.261719 26.710938 "/>
     <defs>
  <style id="current-color-scheme" type="text/css">
   .ColorScheme-Text { color:#eeeeee; } .ColorScheme-Highlight { color:#424242; }
  </style>
 </defs>
<path style="fill:currentColor" class="ColorScheme-Text" d="M 10.585938 23.402344 L 21.167969 23.402344 L 21.167969 26.050781 L 10.585938 26.050781 Z M 10.585938 23.402344 "/>
     <defs>
  <style id="current-color-scheme" type="text/css">
   .ColorScheme-Text { color:#eeeeee; } .ColorScheme-Highlight { color:#424242; }
  </style>
 </defs>
<path style="fill:currentColor" class="ColorScheme-Text" d="M 10.585938 6.203125 L 13.230469 6.203125 L 13.230469 8.851562 L 10.585938 8.851562 Z M 10.585938 6.203125 "/>
     <defs>
  <style id="current-color-scheme" type="text/css">
   .ColorScheme-Text { color:#eeeeee; } .ColorScheme-Highlight { color:#424242; }
  </style>
 </defs>
<path style="fill:currentColor" class="ColorScheme-Text" d="M 18.523438 6.203125 L 21.167969 6.203125 L 21.167969 8.851562 L 18.523438 8.851562 Z M 18.523438 6.203125 "/>
     <defs>
  <style id="current-color-scheme" type="text/css">
   .ColorScheme-Text { color:#eeeeee; } .ColorScheme-Highlight { color:#424242; }
  </style>
 </defs>
<path style="fill:currentColor" class="ColorScheme-Text" d="M 19.183594 14.804688 L 12.570312 14.804688 L 15.875 18.773438 Z M 19.183594 14.804688 "/>
</g>
</svg>
